dist/img/svg/vkontakte.svg

<svg width="18" height="10" viewBox="0 0 18 10" fill="none" xmlns="http://www.w3.org/2000/svg">
<path fill-rule="evenodd" clip-rule="evenodd" d="M17.5446 10H15.2358C14.4819 10 14.3872 9.47857 13.0051 8.22674C11.8395 7.13543 11.3405 7.04911 11.058 7.04911C10.8064 7.04911 10.6335 7.22831 10.6335 7.64525V9.31452C10.6335 9.80667 10.335 10 9.11039 10C7.09945 10 4.86934 8.82288 3.17281 6.64681C0.644244 3.41275 0 0.998435 0 0.477008C0 0.193832 0.220245 0 0.518694 0H2.57591C3.11003 0 3.31432 0.149412 3.50265 0.685478C4.44481 3.30877 6.12591 5.6186 6.83239 5.6186C7.09945 5.6186 7.13084 5.41013 7.13084 4.87355V2.20585C7.13084 0.913129 6.36158 0.805108 6.36158 0.328101C6.36158 0.138812 6.51852 0 6.76962 0H10.068C10.5079 0 10.5707 0.149412 10.5707 0.655696V4.27742C10.5707 4.69032 10.6601 4.84377 10.8532 4.84377C11.0937 4.84377 11.3144 4.70597 11.7485 4.24764C13.1025 2.83025 14.2149 0.581495 14.2149 0.581495C14.3558 0.298319 14.5293 0.104487 15.0001 0.104487H17.0573C17.4664 0.104487 17.6388 0.313462 17.5606 0.685478C17.3244 1.72884 14.9527 4.90334 14.9527 4.90334C14.733 5.23093 14.6389 5.41013 14.9527 5.72308C15.173 5.99112 15.864 6.57211 16.288 7.10868C17.3244 8.15204 18 9.03135 18 9.5235C18 9.89551 17.7803 10 17.5446 10Z" fill="white"/>
</svg>

<svg width="18" height="10" viewBox="0 0 18 10" fill="none" xmlns="http://www.w3.org/2000/svg"><path fill-rule="evenodd" clip-rule="evenodd" d="M17.545 10h-2.31c-.753 0-.848-.521-2.23-1.773-1.166-1.092-1.665-1.178-1.947-1.178-.252 0-.425.18-.425.596v1.67c0 .492-.298.685-1.523.685-2.01 0-4.24-1.177-5.937-3.353C.644 3.413 0 .998 0 .477 0 .194.22 0 .519 0h2.057c.534 0 .738.15.927.685.942 2.624 2.623 4.934 3.33 4.934.266 0 .298-.209.298-.745V2.206c0-1.293-.77-1.4-.77-1.878 0-.19.158-.328.409-.328h3.298c.44 0 .503.15.503.656v3.621c0 .413.09.567.282.567.24 0 .461-.138.896-.596C13.101 2.83 14.215.58 14.215.58c.14-.283.314-.477.785-.477h2.057c.41 0 .582.21.504.581-.237 1.044-2.608 4.218-2.608 4.218-.22.328-.314.507 0 .82.22.268.911.85 1.335 1.386C17.324 8.152 18 9.03 18 9.524c0 .372-.22.476-.455.476z" fill="#fff"/></svg>
